X: 1
T: An Phis Thirim
M: 9/8
L: 1/8
R: slip jig
K: Emin
|:GFE EB,E GFE|F2D-D2F GFE|B,EE-E2F GFE|~B3 BAG AGF:|
|:EGB edc BAB|c2A-A2c- cBA|GFE EFG FED:|
